icons/folder-secure-open.svg

<svg xmlns="http://www.w3.org/2000/svg" viewBox="0 0 32 32">
  <path d="M28.96692,12H9.44152a2,2,0,0,0-1.89737,1.36754L4,24V10H28a2,2,0,0,0-2-2H15.1241a2,2,0,0,1-1.28038-.46357L12.5563,6.46357A2,2,0,0,0,11.27592,6H4A2,2,0,0,0,2,8V24a2,2,0,0,0,2,2H26l4.80523-11.21213A2,2,0,0,0,28.96692,12Z" style="fill: #f9a825"/>
  <path d="M28,16V12.17193A4.11612,4.11612,0,0,0,24.393,8.0188,4.00079,4.00079,0,0,0,20,12v4H18a2,2,0,0,0-2,2v8a2,2,0,0,0,2,2H30a2,2,0,0,0,2-2V18a2,2,0,0,0-2-2Zm-4,8a2,2,0,1,1,2-2A2,2,0,0,1,24,24Zm2-8H22V12a2,2,0,0,1,4,0Z" style="fill: #fff9c4"/>
</svg>

<svg xmlns="http://www.w3.org/2000/svg" viewBox="0 0 32 32"><path fill="#f9a825" d="M28.967 12H9.442a2 2 0 0 0-1.898 1.368L4 24V10h24a2 2 0 0 0-2-2H15.124a2 2 0 0 1-1.28-.464l-1.288-1.072A2 2 0 0 0 11.276 6H4a2 2 0 0 0-2 2v16a2 2 0 0 0 2 2h22l4.805-11.212A2 2 0 0 0 28.967 12Z"/><path fill="#fff9c4" d="M28 16v-3.828a4.116 4.116 0 0 0-3.607-4.153A4 4 0 0 0 20 12v4h-2a2 2 0 0 0-2 2v8a2 2 0 0 0 2 2h12a2 2 0 0 0 2-2v-8a2 2 0 0 0-2-2Zm-4 8a2 2 0 1 1 2-2 2 2 0 0 1-2 2Zm2-8h-4v-4a2 2 0 0 1 4 0Z"/></svg>
